X:276
T: Dr. Luthers Glaubens - und Heldenlied: Ein feste Burg
N: A0629
O: Europa, Mitteleuropa, Deutschland
N: Strassburger Gsgb 1531
R: Romanze, Ballade, Lied, religioeses Lied
M: 4/2
L: 1/2
K: F
f | f2f2 | c2df- | fed2 | c2z
f | e2d2 | c2dB- | BAG2 | F2z
f | f2f2 | c2df- | fed2 | c2z
f | e2d2 | c2dB- | BAG2 | F2z
F | ABcd- | dc2B | c2
F2 | c2d2 | e2f2 | z2
e2 | f2e2 | d2c2 |
d2d2 | cd2c | A2z
f | e2d2 | c2dB- | BAG2 | F3

@@@ Tune index: 589
